X:50
T:L'Omour De Lo Morianno
R:Bourre
M:3/8
L:1/8
N:La Bourre 4th edition 1929, page 57
Z:Steve Mansfield www.lesession.co.uk May 2012
K:Gm
G |: A/ B/ A G | F D G | A/ B/ A F |
1 G2 G :|2 G2 G | A/ B/ c A | d e d | c B2 |
A2 G | A/ B/ c A | d2 c | B/ A/ G F | G3 |]
<end>
<start>
